assets/svg/single/startups.svg

<svg width="36" height="36" viewBox="0 0 36 36" fill="none" xmlns="http://www.w3.org/2000/svg">
<g opacity="0.8">
<path fill-rule="evenodd" clip-rule="evenodd" d="M25.8013 10.4982C26.0784 10.8941 25.9821 11.4397 25.5863 11.7168C22.764 13.6924 20.4079 16.2027 19.0298 19.3032C17.6572 22.3917 17.2267 26.1279 18.35 30.6211C18.4672 31.0899 18.1822 31.5649 17.7134 31.6822C17.2446 31.7994 16.7695 31.5143 16.6523 31.0455C15.4422 26.2053 15.8866 22.0666 17.4307 18.5925C18.9693 15.1306 21.5716 12.3909 24.5827 10.2831C24.9786 10.006 25.5242 10.1023 25.8013 10.4982Z" fill="#151931"/>
<path fill-rule="evenodd" clip-rule="evenodd" d="M6.25618 12.8293C7.10126 15.6231 8.36385 17.1944 9.97568 18.1154C11.5834 19.0341 13.6507 19.3756 16.2954 19.4447C15.3871 16.2417 13.774 14.4515 11.984 13.5276C10.2355 12.6252 8.20211 12.4891 6.25618 12.8293ZM12.7866 11.9725C15.3268 13.2836 17.3544 15.8674 18.2721 20.1501L18.4989 21.2085H17.4166C14.19 21.2085 11.3625 20.9235 9.10744 19.6349C6.79698 18.3146 5.23068 16.031 4.31768 12.379L4.10547 11.5302L4.95432 11.3179C7.42054 10.7013 10.2792 10.6784 12.7866 11.9725Z" fill="#151931"/>
<path fill-rule="evenodd" clip-rule="evenodd" d="M30.0404 6.59204C30.299 10.3107 28.6747 13.4286 26.2575 15.6831C23.8606 17.9186 20.7423 19.2464 18.0662 19.4351C16.9552 15.3152 17.8362 12.0984 19.9401 9.93263C22.0694 7.74079 25.5936 6.47753 30.0404 6.59204ZM18.6849 8.71324C15.9376 11.5412 15.048 15.6874 16.5814 20.5944L16.7733 21.2084H17.4166C20.7189 21.2084 24.5723 19.6479 27.4511 16.9628C30.3506 14.2585 32.3291 10.3448 31.7013 5.63443L31.606 4.91893L30.8854 4.87654C25.765 4.57535 21.397 5.92148 18.6849 8.71324Z" fill="#151931"/>
</g>
</svg>

<svg width="36" height="36" fill="none" xmlns="http://www.w3.org/2000/svg"><g opacity=".8" fill-rule="evenodd" clip-rule="evenodd" fill="#151931"><path d="M25.8 10.5c.28.4.18.94-.21 1.22a18.67 18.67 0 0 0-6.56 7.58c-1.37 3.1-1.8 6.83-.68 11.32a.88.88 0 0 1-1.7.43c-1.2-4.84-.76-8.98.78-12.46a20.41 20.41 0 0 1 7.15-8.3.88.88 0 0 1 1.22.2Z"/><path d="M6.26 12.83c.84 2.8 2.1 4.36 3.72 5.29 1.6.91 3.67 1.26 6.32 1.32-.91-3.2-2.53-4.99-4.32-5.91a9.06 9.06 0 0 0-5.72-.7Zm6.53-.86c2.54 1.31 4.56 3.9 5.48 8.18l.23 1.06h-1.08c-3.23 0-6.06-.29-8.31-1.58-2.31-1.32-3.88-3.6-4.8-7.25l-.2-.85.84-.21c2.47-.62 5.33-.64 7.84.65Z"/><path d="M30.04 6.6c.26 3.71-1.37 6.83-3.78 9.08a14.02 14.02 0 0 1-8.2 3.76c-1.1-4.12-.22-7.34 1.88-9.5 2.13-2.2 5.65-3.46 10.1-3.35ZM18.68 8.7c-2.74 2.83-3.63 6.98-2.1 11.88l.2.62h.64c3.3 0 7.15-1.56 10.03-4.25 2.9-2.7 4.88-6.62 4.25-11.33l-.1-.71-.71-.04c-5.13-.3-9.5 1.04-12.2 3.83Z"/></g></svg>
